svg/fluentui-system-icons/ic_fluent_person_starburst_20_regular.svg

<svg width="20" height="20" viewBox="0 0 20 20" fill="none" xmlns="http://www.w3.org/2000/svg">
<path d="M7.99573 6.99573C7.99573 5.89116 8.89116 4.99573 9.99573 4.99573C11.1003 4.99573 11.9957 5.89116 11.9957 6.99573C11.9957 8.1003 11.1003 8.99573 9.99573 8.99573C8.89116 8.99573 7.99573 8.1003 7.99573 6.99573ZM7.49571 9.99573L12.4957 9.99573C13.3242 9.99573 13.9957 10.6673 13.9957 11.4957C13.9957 12.6118 13.5368 13.506 12.7836 14.1105C12.0423 14.7055 11.0488 14.9957 9.99573 14.9957C8.94265 14.9957 7.94915 14.7055 7.20788 14.1105C6.4547 13.506 5.99573 12.6118 5.99573 11.4957C5.99573 10.6673 6.66729 9.99573 7.49571 9.99573ZM11.4351 2.92615C10.8768 1.69129 9.12318 1.69128 8.56495 2.92615C8.41545 3.25685 8.00069 3.36799 7.70586 3.15634C6.60499 2.36603 5.08629 3.24285 5.22028 4.59139C5.25616 4.95254 4.95254 5.25616 4.59139 5.22028C3.24285 5.08629 2.36603 6.60499 3.15634 7.70586C3.36799 8.00069 3.25685 8.41545 2.92615 8.56495C1.69129 9.12318 1.69128 10.8768 2.92615 11.4351C3.25685 11.5845 3.36799 11.9993 3.15634 12.2941C2.36603 13.395 3.24285 14.9137 4.59139 14.7797C4.95254 14.7438 5.25616 15.0475 5.22028 15.4086C5.08629 16.7571 6.60499 17.634 7.70586 16.8437C8.00069 16.632 8.41545 16.7431 8.56495 17.0739C9.12318 18.3087 10.8768 18.3087 11.4351 17.0739C11.5845 16.7431 11.9993 16.632 12.2941 16.8437C13.395 17.634 14.9137 16.7571 14.7797 15.4086C14.7438 15.0475 15.0475 14.7438 15.4086 14.7797C16.7571 14.9137 17.634 13.395 16.8437 12.2941C16.632 11.9993 16.7431 11.5845 17.0739 11.4351C18.3087 10.8768 18.3087 9.12318 17.0739 8.56495C16.7431 8.41545 16.632 8.00069 16.8437 7.70586C17.634 6.60499 16.7571 5.08629 15.4086 5.22028C15.0475 5.25616 14.7438 4.95254 14.7797 4.59139C14.9137 3.24285 13.395 2.36603 12.2941 3.15634C11.9993 3.36799 11.5845 3.25685 11.4351 2.92615ZM9.47617 3.33807C9.67993 2.88731 10.3201 2.88731 10.5238 3.33807C10.9334 4.24405 12.0696 4.54851 12.8773 3.96868C13.2792 3.6802 13.8335 4.00026 13.7846 4.49251C13.6863 5.48189 14.5181 6.31369 15.5075 6.21538C15.9997 6.16647 16.3198 6.72084 16.0313 7.12269C15.4515 7.93036 15.7559 9.06661 16.6619 9.47617C17.1127 9.67993 17.1127 10.3201 16.6619 10.5238C15.7559 10.9334 15.4515 12.0696 16.0313 12.8773C16.3198 13.2792 15.9997 13.8335 15.5075 13.7846C14.5181 13.6863 13.6863 14.5181 13.7846 15.5075C13.8335 15.9997 13.2792 16.3198 12.8773 16.0313C12.0696 15.4515 10.9334 15.7559 10.5238 16.6619C10.3201 17.1127 9.67993 17.1127 9.47617 16.6619C9.06661 15.7559 7.93036 15.4515 7.12269 16.0313C6.72084 16.3198 6.16647 15.9997 6.21538 15.5075C6.31369 14.5181 5.48189 13.6863 4.49251 13.7846C4.00026 13.8335 3.6802 13.2792 3.96868 12.8773C4.54851 12.0696 4.24405 10.9334 3.33807 10.5238C2.88731 10.3201 2.88731 9.67993 3.33807 9.47617C4.24405 9.06661 4.54851 7.93036 3.96868 7.12269C3.6802 6.72084 4.00026 6.16647 4.49251 6.21538C5.48189 6.31369 6.31369 5.48189 6.21538 4.49251C6.16647 4.00026 6.72084 3.6802 7.12269 3.96868C7.93036 4.54851 9.06661 4.24405 9.47617 3.33807Z" fill="#212121"/>
</svg>

<svg xmlns="http://www.w3.org/2000/svg" width="20" height="20"><path d="M7.996 6.996a2 2 0 1 1 4 0 2 2 0 0 1-4 0Zm-.5 3h5a1.5 1.5 0 0 1 1.5 1.5c0 1.116-.46 2.01-1.212 2.614-.742.596-1.735.886-2.788.886-1.053 0-2.047-.29-2.788-.886-.753-.604-1.212-1.498-1.212-2.614a1.5 1.5 0 0 1 1.5-1.5Zm3.94-7.07c-.56-1.235-2.313-1.235-2.871 0a.575.575 0 0 1-.86.23c-1.1-.79-2.619.087-2.485 1.435a.575.575 0 0 1-.629.63c-1.348-.135-2.225 1.384-1.435 2.485.212.295.1.71-.23.859-1.235.558-1.235 2.312 0 2.87.33.15.442.564.23.86-.79 1.1.087 2.619 1.435 2.485a.575.575 0 0 1 .63.629c-.135 1.348 1.384 2.225 2.485 1.435.295-.212.71-.1.859.23.558 1.235 2.312 1.235 2.87 0a.575.575 0 0 1 .86-.23c1.1.79 2.619-.087 2.485-1.435a.575.575 0 0 1 .629-.63c1.348.135 2.225-1.384 1.435-2.485a.575.575 0 0 1 .23-.859c1.235-.558 1.235-2.312 0-2.87a.575.575 0 0 1-.23-.86c.79-1.1-.087-2.619-1.435-2.485a.575.575 0 0 1-.63-.629c.135-1.348-1.384-2.225-2.485-1.435a.575.575 0 0 1-.859-.23Zm-1.96.412a.575.575 0 0 1 1.048 0 1.575 1.575 0 0 0 2.353.63.575.575 0 0 1 .908.525 1.575 1.575 0 0 0 1.723 1.722.575.575 0 0 1 .523.908 1.575 1.575 0 0 0 .63 2.353.574.574 0 0 1 0 1.048 1.575 1.575 0 0 0-.63 2.353.575.575 0 0 1-.523.908 1.575 1.575 0 0 0-1.723 1.723.575.575 0 0 1-.908.523 1.575 1.575 0 0 0-2.353.63.575.575 0 0 1-1.048 0 1.575 1.575 0 0 0-2.353-.63.575.575 0 0 1-.908-.523 1.575 1.575 0 0 0-1.722-1.723.575.575 0 0 1-.524-.908 1.575 1.575 0 0 0-.63-2.353.575.575 0 0 1 0-1.048 1.575 1.575 0 0 0 .63-2.353.575.575 0 0 1 .524-.908 1.575 1.575 0 0 0 1.722-1.722.575.575 0 0 1 .908-.524c.807.58 1.944.275 2.353-.63Z"/></svg>
